public/img/fonts/tangerine.svg

<svg xmlns="http://www.w3.org/2000/svg" width="142.14" height="53.34" viewBox="4 8.36 142.14 53.34"><path d="M49.54 11.78q.36.36-.06.9-.96 1.38-1.44 1.2-.72-.24-1.44-.45-.72-.21-1.5-.39-3.36.3-6 3.51t-4.74 10.11q-3.12 10.14-8.67 15.21t-13.41 5.07q-2.16 0-3.72-.57t-2.58-1.5q-1.02-.93-1.5-2.16T4 40.22q0-3.6 3.54-6 .24 0 .3.24t-.06.42q-.84.66-1.23 1.41-.39.75-.39 2.13 0 3.06 2.13 4.83t6.33 1.77q2.88 0 5.28-.78 2.4-.78 4.41-2.67 2.01-1.89 3.72-5.07 1.71-3.18 3.27-7.98 2.16-6.72 5.16-10.83t6.78-5.13q-4.02-1.02-8.34-1.62-4.32-.6-8.58-.6-3.36 0-5.97 1.11T16 14.42q-1.74 1.86-2.52 4.35-.78 2.49-.42 5.19-.36.54-.66.06-.36-2.94.45-5.76t2.79-5.04Q17.62 11 20.8 9.68q3.18-1.32 7.5-1.32 6.42 0 11.67 1.05t9.57 2.37Zm2.28 31.44q.12-.12.3 0t.12.36q-1.26 1.74-2.49 2.58-1.23.84-2.07.84-.54 0-.87-.54-.33-.54-.42-1.47-.09-.93.06-2.1t.51-2.43q-1.62 2.52-3.42 4.35-1.8 1.83-3.48 2.19-1.08 0-1.83-1.05t-.75-3.27q0-1.98.81-3.93.81-1.95 2.19-3.54t3.18-2.55q1.8-.96 3.78-.96 1.08 0 1.86.24t1.44.72q.36-.3.99-.57.63-.27 1.17-.27.3 0 .18.3-1.38 1.68-2.37 3.72-.99 2.04-1.53 3.96t-.69 3.39q-.15 1.47.21 2.01.3.42 1.08.03t2.04-2.01Zm-10.44 1.74q.66 0 1.71-.93 1.05-.93 2.19-2.43t2.25-3.39q1.11-1.89 1.95-3.81-.24-.78-1.11-1.26-.87-.48-2.01-.48-1.32 0-2.49.69-1.17.69-2.07 1.92-.9 1.23-1.44 2.91-.54 1.68-.54 3.72 0 1.32.45 2.19.45.87 1.11.87Zm28.8-1.8q.18-.12.36 0t.12.36q-1.02 1.38-2.25 2.43Q67.18 47 66.1 47q-1.86 0-1.86-2.4 0-2.04.72-4.53t1.98-5.01q.24-.42.24-.84 0-.66-.6-.66-2.22 0-4.89 3.06-2.67 3.06-4.95 9.6-.12.36-.66.57-.54.21-1.02.21-.66 0-.48-.54 1.02-2.58 2.13-5.82 1.11-3.24 1.95-6.42.24-1.14-.42-1.14-.6 0-1.2.6t-1.26 1.56q-.12.12-.27-.06-.15-.18-.09-.36.66-1.02 1.8-2.1 1.14-1.08 2.46-1.08 1.5 0 1.02 2.04-.24 1.32-.66 2.79-.42 1.47-.9 2.91.84-1.62 1.98-3.06 1.14-1.44 2.37-2.46 1.23-1.02 2.46-1.62 1.23-.6 2.31-.6.72 0 1.11.36.39.36.39.84 0 .78-.36 1.56-1.26 2.28-2.13 4.77-.87 2.49-.87 4.59 0 1.5.96 1.5 1.26 0 2.82-2.1Zm14.1-12.36q.18-.12.36.03t.06.39q-.48.72-1.2 1.29-.72.57-1.8.51.54.9.54 2.34 0 1.38-.42 2.52-.42 1.14-.96 2.16-.54 1.02-1.11 1.92-.57.9-.9 1.86-.33.96-.3 1.95.03.99.69 2.19.54 1.02.99 1.83.45.81.78 1.56t.48 1.53q.15.78.15 1.68 0 1.44-.6 2.73t-1.74 2.28q-1.14.99-2.76 1.56-1.62.57-3.66.57-2.1 0-3.78-.6-1.68-.6-2.85-1.59-1.17-.99-1.77-2.28-.6-1.29-.6-2.67 0-1.8 1.29-3.15 1.29-1.35 3.69-2.01.3 0 .39.21.09.21-.09.39-1.26.48-2.04 1.44t-.78 2.58q0 3.06 2.1 4.92 2.1 1.86 5.52 1.86 2.88 0 4.26-1.47t1.38-3.81q0-1.38-.42-2.46t-1.26-2.46q-1.14-1.92-.99-3.69.15-1.77 1.23-3.69.12-.24.27-.45.15-.21.27-.51-.66.72-1.53 1.26t-1.47.54q-2.94 0-2.94-3.84 0-1.26.48-2.76.48-1.5 1.35-2.79.87-1.29 2.04-2.13 1.17-.84 2.61-.84 2.1 0 3.24-.15 1.14-.15 1.8-.75Zm-4.8 10.02q.36-.84.6-1.74t.24-1.8q0-1.74-.57-2.73t-1.83-.99q-1.44 0-2.43 1.44-.99 1.44-.99 4.08 0 1.74.57 2.52t1.71.78q.66 0 1.44-.42.78-.42 1.26-1.14Zm16.2-6.54q0 .84-.66 1.56-.66.72-1.8 1.29-1.14.57-2.61 1.05-1.47.48-3.09.9-.06.66-.09 1.32t-.03 1.44q0 1.5.66 2.52t1.86 1.02q1.2 0 2.25-.6t1.89-1.62q.24-.12.36.06t0 .42q-1.02 1.38-2.55 2.37-1.53.99-3.21.99-1.56 0-2.55-1.02-.99-1.02-.99-3 0-1.8.66-3.81t1.74-3.69q1.08-1.68 2.49-2.76 1.41-1.08 2.97-1.08 1.14 0 1.92.81t.78 1.83Zm-3.96-1.08q-1.38 0-2.46 1.2t-1.56 3.78q2.88-.42 4.23-1.23 1.35-.81 1.35-1.83 0-.84-.42-1.38-.42-.54-1.14-.54Zm11.22.12q0 .9-.18 2.1-.18 1.2-.48 2.4 1.2-2.88 2.64-4.53 1.44-1.65 3.12-1.65.66 0 1.2.36.54.36.54 1.02 0 .48-.36 1.23t-.72 1.11q-.36.24-.36-.18 0-1.02-1.38-1.02-2.1 0-3.78 3.15-1.68 3.15-3.18 8.73-.12.6-.81.78-.69.18-1.17.18-.66 0-.3-.66.54-1.26 1.02-2.73t.93-2.97q.45-1.5.75-2.94t.48-2.64q.24-1.8-.6-1.8-.48 0-1.11.54-.63.54-1.17 1.26-.24.12-.42-.03t-.06-.39q.9-1.14 2.01-2.07 1.11-.93 2.07-.93 1.32 0 1.32 1.68Zm7.56 2.52q-.18.12-.33-.09-.15-.21-.03-.39.84-.84 2.28-1.92t2.88-1.8q.48 0 .48.54-.78 1.38-1.53 3t-1.32 3.21q-.57 1.59-.93 3.06-.36 1.47-.36 2.43 0 1.26.84 1.26.66 0 1.29-.57t1.47-1.53q.12-.12.3.06t.06.42q-1.08 1.32-2.31 2.4-1.23 1.08-2.31 1.08-1.56 0-1.56-1.98 0-1.14.39-2.73t.99-3.21q.6-1.62 1.35-3.12.75-1.5 1.47-2.58-.66.48-1.65 1.23-.99.75-1.47 1.23Zm5.4-6.78q-.18.18-.33.03-.15-.15-.21-.42t-.06-.63q0-.36.18-.6 1.56-2.16 4.38-4.62.18-.06.36.09t.06.27q-1.26 1.14-2.4 2.73t-1.98 3.15Zm17.34 14.1q.18-.12.36 0t.12.36q-1.02 1.38-2.25 2.43-1.23 1.05-2.31 1.05-1.86 0-1.86-2.4 0-2.04.72-4.53t1.98-5.01q.24-.42.24-.84 0-.66-.6-.66-2.22 0-4.89 3.06-2.67 3.06-4.95 9.6-.12.36-.66.57-.54.21-1.02.21-.66 0-.48-.54 1.02-2.58 2.13-5.82 1.11-3.24 1.95-6.42.24-1.14-.42-1.14-.6 0-1.2.6t-1.26 1.56q-.12.12-.27-.06-.15-.18-.09-.36.66-1.02 1.8-2.1 1.14-1.08 2.46-1.08 1.5 0 1.02 2.04-.24 1.32-.66 2.79-.42 1.47-.9 2.91.84-1.62 1.98-3.06 1.14-1.44 2.37-2.46 1.23-1.02 2.46-1.62 1.23-.6 2.31-.6.72 0 1.11.36.39.36.39.84 0 .78-.36 1.56-1.26 2.28-2.13 4.77-.87 2.49-.87 4.59 0 1.5.96 1.5 1.26 0 2.82-2.1Zm12.9-8.88q0 .84-.66 1.56-.66.72-1.8 1.29-1.14.57-2.61 1.05-1.47.48-3.09.9-.06.66-.09 1.32t-.03 1.44q0 1.5.66 2.52t1.86 1.02q1.2 0 2.25-.6t1.89-1.62q.24-.12.36.06t0 .42q-1.02 1.38-2.55 2.37-1.53.99-3.21.99-1.56 0-2.55-1.02-.99-1.02-.99-3 0-1.8.66-3.81t1.74-3.69q1.08-1.68 2.49-2.76 1.41-1.08 2.97-1.08 1.14 0 1.92.81t.78 1.83Zm-3.96-1.08q-1.38 0-2.46 1.2t-1.56 3.78q2.88-.42 4.23-1.23 1.35-.81 1.35-1.83 0-.84-.42-1.38-.42-.54-1.14-.54Z"/></svg>

<svg version="1.1" xmlns="http://www.w3.org/2000/svg" xmlns:xlink="http://www.w3.org/1999/xlink" role="img" width="142.13999938964844" height="53.34000015258789" viewBox="4 8.359999656677246 142.13999938964844 53.34000015258789"><title>Tangerine</title><path fill="#000000" d="M49.54 11.78L49.54 11.78Q49.90 12.14 49.48 12.68L49.48 12.68Q48.52 14.06 48.04 13.88L48.04 13.88Q47.32 13.64 46.60 13.43Q45.88 13.22 45.10 13.04L45.10 13.04Q41.74 13.34 39.10 16.55Q36.46 19.76 34.36 26.66L34.36 26.66Q31.24 36.80 25.69 41.87Q20.14 46.94 12.28 46.94L12.28 46.94Q10.12 46.94 8.56 46.37Q7 45.80 5.98 44.87Q4.96 43.94 4.48 42.71Q4 41.48 4 40.22L4 40.22Q4 36.62 7.54 34.22L7.54 34.22Q7.78 34.22 7.84 34.46Q7.90 34.70 7.78 34.88L7.78 34.88Q6.94 35.54 6.55 36.29Q6.16 37.04 6.16 38.42L6.16 38.42Q6.16 41.48 8.29 43.25Q10.42 45.02 14.62 45.02L14.62 45.02Q17.50 45.02 19.90 44.24Q22.30 43.46 24.31 41.57Q26.32 39.68 28.03 36.50Q29.74 33.32 31.30 28.52L31.30 28.52Q33.46 21.80 36.46 17.69Q39.46 13.58 43.24 12.56L43.24 12.56Q39.22 11.54 34.90 10.94Q30.58 10.34 26.32 10.34L26.32 10.34Q22.96 10.34 20.35 11.45Q17.74 12.56 16 14.42Q14.26 16.28 13.48 18.77Q12.70 21.26 13.06 23.96L13.06 23.96Q12.70 24.50 12.40 24.02L12.40 24.02Q12.04 21.08 12.85 18.26Q13.66 15.44 15.64 13.22Q17.62 11 20.80 9.68Q23.98 8.36 28.30 8.36L28.30 8.36Q34.72 8.36 39.97 9.41Q45.22 10.46 49.54 11.78ZM51.82 43.22L51.82 43.22Q51.94 43.10 52.12 43.22Q52.30 43.34 52.24 43.58L52.24 43.58Q50.98 45.32 49.75 46.16Q48.52 47 47.68 47L47.68 47Q47.14 47 46.81 46.46Q46.48 45.92 46.39 44.99Q46.30 44.06 46.45 42.89Q46.60 41.72 46.96 40.46L46.96 40.46Q45.34 42.98 43.54 44.81Q41.74 46.64 40.06 47L40.06 47Q38.98 47 38.23 45.95Q37.48 44.90 37.48 42.68L37.48 42.68Q37.48 40.70 38.29 38.75Q39.10 36.80 40.48 35.21Q41.86 33.62 43.66 32.66Q45.46 31.70 47.44 31.70L47.44 31.70Q48.52 31.70 49.30 31.94Q50.08 32.18 50.74 32.66L50.74 32.66Q51.10 32.36 51.73 32.09Q52.36 31.82 52.90 31.82L52.90 31.82Q53.20 31.82 53.08 32.12L53.08 32.12Q51.70 33.80 50.71 35.84Q49.72 37.88 49.18 39.80Q48.64 41.72 48.49 43.19Q48.34 44.66 48.70 45.20L48.70 45.20Q49 45.62 49.78 45.23Q50.56 44.84 51.82 43.22ZM41.38 44.96L41.38 44.96Q42.04 44.96 43.09 44.03Q44.14 43.10 45.28 41.60Q46.42 40.10 47.53 38.21Q48.64 36.32 49.48 34.40L49.48 34.40Q49.24 33.62 48.37 33.14Q47.50 32.66 46.36 32.66L46.36 32.66Q45.04 32.66 43.87 33.35Q42.70 34.04 41.80 35.27Q40.90 36.50 40.36 38.18Q39.82 39.86 39.82 41.90L39.82 41.90Q39.82 43.22 40.27 44.09Q40.72 44.96 41.38 44.96ZM70.18 43.16L70.18 43.16Q70.36 43.04 70.54 43.16Q70.72 43.28 70.66 43.52L70.66 43.52Q69.64 44.90 68.41 45.95Q67.18 47 66.10 47L66.10 47Q64.24 47 64.24 44.60L64.24 44.60Q64.24 42.56 64.96 40.07Q65.68 37.58 66.94 35.06L66.94 35.06Q67.18 34.64 67.18 34.22L67.18 34.22Q67.18 33.56 66.58 33.56L66.58 33.56Q64.36 33.56 61.69 36.62Q59.02 39.68 56.74 46.22L56.74 46.22Q56.62 46.58 56.08 46.79Q55.54 47 55.06 47L55.06 47Q54.40 47 54.58 46.46L54.58 46.46Q55.60 43.88 56.71 40.64Q57.82 37.40 58.66 34.22L58.66 34.22Q58.90 33.08 58.24 33.08L58.24 33.08Q57.64 33.08 57.04 33.68Q56.44 34.28 55.78 35.24L55.78 35.24Q55.66 35.36 55.51 35.18Q55.36 35 55.42 34.82L55.42 34.82Q56.08 33.80 57.22 32.72Q58.36 31.64 59.68 31.64L59.68 31.64Q61.18 31.64 60.70 33.68L60.70 33.68Q60.46 35 60.04 36.47Q59.62 37.94 59.14 39.38L59.14 39.38Q59.98 37.76 61.12 36.32Q62.26 34.88 63.49 33.86Q64.72 32.84 65.95 32.24Q67.18 31.64 68.26 31.64L68.26 31.64Q68.98 31.64 69.37 32Q69.76 32.36 69.76 32.84L69.76 32.84Q69.76 33.62 69.40 34.40L69.40 34.40Q68.14 36.68 67.27 39.17Q66.40 41.66 66.40 43.76L66.40 43.76Q66.40 45.26 67.36 45.26L67.36 45.26Q68.62 45.26 70.18 43.16ZM84.28 30.80L84.28 30.80Q84.46 30.68 84.64 30.83Q84.82 30.98 84.70 31.22L84.70 31.22Q84.22 31.94 83.50 32.51Q82.78 33.08 81.70 33.02L81.70 33.02Q82.24 33.92 82.24 35.36L82.24 35.36Q82.24 36.74 81.82 37.88Q81.40 39.02 80.86 40.04Q80.32 41.06 79.75 41.96Q79.18 42.86 78.85 43.82Q78.52 44.78 78.55 45.77Q78.58 46.76 79.24 47.96L79.24 47.96Q79.78 48.98 80.23 49.79Q80.68 50.60 81.01 51.35Q81.34 52.10 81.49 52.88Q81.64 53.66 81.64 54.56L81.64 54.56Q81.64 56 81.04 57.29Q80.44 58.58 79.30 59.57Q78.16 60.56 76.54 61.13Q74.92 61.70 72.88 61.70L72.88 61.70Q70.78 61.70 69.10 61.10Q67.42 60.50 66.25 59.51Q65.08 58.52 64.48 57.23Q63.88 55.94 63.88 54.56L63.88 54.56Q63.88 52.76 65.17 51.41Q66.46 50.06 68.86 49.40L68.86 49.40Q69.16 49.40 69.25 49.61Q69.34 49.82 69.16 50L69.16 50Q67.90 50.48 67.12 51.44Q66.34 52.40 66.34 54.02L66.34 54.02Q66.34 57.08 68.44 58.94Q70.54 60.80 73.96 60.80L73.96 60.80Q76.84 60.80 78.22 59.33Q79.60 57.86 79.60 55.52L79.60 55.52Q79.60 54.14 79.18 53.06Q78.76 51.98 77.92 50.60L77.92 50.60Q76.78 48.68 76.93 46.91Q77.08 45.14 78.16 43.22L78.16 43.22Q78.28 42.98 78.43 42.77Q78.58 42.56 78.70 42.26L78.70 42.26Q78.04 42.98 77.17 43.52Q76.30 44.06 75.70 44.06L75.70 44.06Q72.76 44.06 72.76 40.22L72.76 40.22Q72.76 38.96 73.24 37.46Q73.72 35.96 74.59 34.67Q75.46 33.38 76.63 32.54Q77.80 31.70 79.24 31.70L79.24 31.70Q81.34 31.70 82.48 31.55Q83.62 31.40 84.28 30.80ZM79.48 40.82L79.48 40.82Q79.84 39.98 80.08 39.08Q80.32 38.18 80.32 37.28L80.32 37.28Q80.32 35.54 79.75 34.55Q79.18 33.56 77.92 33.56L77.92 33.56Q76.48 33.56 75.49 35Q74.50 36.44 74.50 39.08L74.50 39.08Q74.50 40.82 75.07 41.60Q75.64 42.38 76.78 42.38L76.78 42.38Q77.44 42.38 78.22 41.96Q79 41.54 79.48 40.82ZM95.68 34.28L95.68 34.28Q95.68 35.12 95.02 35.84Q94.36 36.56 93.22 37.13Q92.08 37.70 90.61 38.18Q89.14 38.66 87.52 39.08L87.52 39.08Q87.46 39.74 87.43 40.40Q87.40 41.06 87.40 41.84L87.40 41.84Q87.40 43.34 88.06 44.36Q88.72 45.38 89.92 45.38L89.92 45.38Q91.12 45.38 92.17 44.78Q93.22 44.18 94.06 43.16L94.06 43.16Q94.30 43.04 94.42 43.22Q94.54 43.40 94.42 43.64L94.42 43.64Q93.40 45.02 91.87 46.01Q90.34 47 88.66 47L88.66 47Q87.10 47 86.11 45.98Q85.12 44.96 85.12 42.98L85.12 42.98Q85.12 41.18 85.78 39.17Q86.44 37.16 87.52 35.48Q88.60 33.80 90.01 32.72Q91.42 31.64 92.98 31.64L92.98 31.64Q94.12 31.64 94.90 32.45Q95.68 33.26 95.68 34.28ZM91.72 33.20L91.72 33.20Q90.34 33.20 89.26 34.40Q88.18 35.60 87.70 38.18L87.70 38.18Q90.58 37.76 91.93 36.95Q93.28 36.14 93.28 35.12L93.28 35.12Q93.28 34.28 92.86 33.74Q92.44 33.20 91.72 33.20ZM102.94 33.32L102.94 33.32Q102.94 34.22 102.76 35.42Q102.58 36.62 102.28 37.82L102.28 37.82Q103.48 34.94 104.92 33.29Q106.36 31.64 108.04 31.64L108.04 31.64Q108.70 31.64 109.24 32Q109.78 32.36 109.78 33.02L109.78 33.02Q109.78 33.50 109.42 34.25Q109.06 35 108.70 35.36L108.70 35.36Q108.34 35.60 108.34 35.18L108.34 35.18Q108.34 34.16 106.96 34.16L106.96 34.16Q104.86 34.16 103.18 37.31Q101.50 40.46 100 46.04L100 46.04Q99.88 46.64 99.19 46.82Q98.50 47 98.02 47L98.02 47Q97.36 47 97.72 46.34L97.72 46.34Q98.26 45.08 98.74 43.61Q99.22 42.14 99.67 40.64Q100.12 39.14 100.42 37.70Q100.72 36.26 100.90 35.06L100.90 35.06Q101.14 33.26 100.30 33.26L100.30 33.26Q99.82 33.26 99.19 33.80Q98.56 34.34 98.02 35.06L98.02 35.06Q97.78 35.18 97.60 35.03Q97.42 34.88 97.54 34.64L97.54 34.64Q98.44 33.50 99.55 32.57Q100.66 31.64 101.62 31.64L101.62 31.64Q102.94 31.64 102.94 33.32ZM110.50 35.84L110.50 35.84Q110.32 35.96 110.17 35.75Q110.02 35.54 110.14 35.36L110.14 35.36Q110.98 34.52 112.42 33.44Q113.86 32.36 115.30 31.64L115.30 31.64Q115.78 31.64 115.78 32.18L115.78 32.18Q115 33.56 114.25 35.18Q113.50 36.80 112.93 38.39Q112.36 39.98 112 41.45Q111.64 42.92 111.64 43.88L111.64 43.88Q111.64 45.14 112.48 45.14L112.48 45.14Q113.14 45.14 113.77 44.57Q114.40 44 115.24 43.04L115.24 43.04Q115.36 42.92 115.54 43.10Q115.72 43.28 115.60 43.52L115.60 43.52Q114.52 44.84 113.29 45.92Q112.06 47 110.98 47L110.98 47Q109.42 47 109.42 45.02L109.42 45.02Q109.42 43.88 109.81 42.29Q110.20 40.70 110.80 39.08Q111.40 37.46 112.15 35.96Q112.90 34.46 113.62 33.38L113.62 33.38Q112.96 33.86 111.97 34.61Q110.98 35.36 110.50 35.84ZM115.90 29.06L115.90 29.06Q115.72 29.24 115.57 29.09Q115.42 28.94 115.36 28.67Q115.30 28.40 115.30 28.04Q115.30 27.68 115.48 27.44L115.48 27.44Q117.04 25.28 119.86 22.82L119.86 22.82Q120.04 22.76 120.22 22.91Q120.40 23.06 120.28 23.18L120.28 23.18Q119.02 24.32 117.88 25.91Q116.74 27.50 115.90 29.06ZM133.24 43.16L133.24 43.16Q133.42 43.04 133.60 43.16Q133.78 43.28 133.72 43.52L133.72 43.52Q132.70 44.90 131.47 45.95Q130.24 47 129.16 47L129.16 47Q127.30 47 127.30 44.60L127.30 44.60Q127.30 42.56 128.02 40.07Q128.74 37.58 130 35.06L130 35.06Q130.24 34.64 130.24 34.22L130.24 34.22Q130.24 33.56 129.64 33.56L129.64 33.56Q127.42 33.56 124.75 36.62Q122.08 39.68 119.80 46.22L119.80 46.22Q119.68 46.58 119.14 46.79Q118.60 47 118.12 47L118.12 47Q117.46 47 117.64 46.46L117.64 46.46Q118.66 43.88 119.77 40.64Q120.88 37.40 121.72 34.22L121.72 34.22Q121.96 33.08 121.30 33.08L121.30 33.08Q120.70 33.08 120.10 33.68Q119.50 34.28 118.84 35.24L118.84 35.24Q118.72 35.36 118.57 35.18Q118.42 35 118.48 34.82L118.48 34.82Q119.14 33.80 120.28 32.72Q121.42 31.64 122.74 31.64L122.74 31.64Q124.24 31.64 123.76 33.68L123.76 33.68Q123.52 35 123.10 36.47Q122.68 37.94 122.20 39.38L122.20 39.38Q123.04 37.76 124.18 36.32Q125.32 34.88 126.55 33.86Q127.78 32.84 129.01 32.24Q130.24 31.64 131.32 31.64L131.32 31.64Q132.04 31.64 132.43 32Q132.82 32.36 132.82 32.84L132.82 32.84Q132.82 33.62 132.46 34.40L132.46 34.40Q131.20 36.68 130.33 39.17Q129.46 41.66 129.46 43.76L129.46 43.76Q129.46 45.26 130.42 45.26L130.42 45.26Q131.68 45.26 133.24 43.16ZM146.14 34.28L146.14 34.28Q146.14 35.12 145.48 35.84Q144.82 36.56 143.68 37.13Q142.54 37.70 141.07 38.18Q139.60 38.66 137.98 39.08L137.98 39.08Q137.92 39.74 137.89 40.40Q137.86 41.06 137.86 41.84L137.86 41.84Q137.86 43.34 138.52 44.36Q139.18 45.38 140.38 45.38L140.38 45.38Q141.58 45.38 142.63 44.78Q143.68 44.18 144.52 43.16L144.52 43.16Q144.76 43.04 144.88 43.22Q145 43.40 144.88 43.64L144.88 43.64Q143.86 45.02 142.33 46.01Q140.80 47 139.12 47L139.12 47Q137.56 47 136.57 45.98Q135.58 44.96 135.58 42.98L135.58 42.98Q135.58 41.18 136.24 39.17Q136.90 37.16 137.98 35.48Q139.06 33.80 140.47 32.72Q141.88 31.64 143.44 31.64L143.44 31.64Q144.58 31.64 145.36 32.45Q146.14 33.26 146.14 34.28ZM142.18 33.20L142.18 33.20Q140.80 33.20 139.72 34.40Q138.64 35.60 138.16 38.18L138.16 38.18Q141.04 37.76 142.39 36.95Q143.74 36.14 143.74 35.12L143.74 35.12Q143.74 34.28 143.32 33.74Q142.90 33.20 142.18 33.20Z"></path></svg>
